packages/icons/src/SVG/share.svg

<svg width="12" height="12" viewBox="0 0 12 12" >
<path fill-rule="evenodd" clip-rule="evenodd" d="M9.99999 3.99999C11.1046 3.99999 12 3.10455 12 1.99998C12 0.895405 11.1046 0 10 0C8.89545 0 8.00002 0.895429 8.00002 2C8.00002 2.14372 8.01516 2.28389 8.04397 2.41902L3.50848 4.68676C3.14183 4.26594 2.60197 3.99999 2 3.99999C0.895429 3.99999 0 4.89542 0 5.99999C0 7.10457 0.895429 8 2 8C2.60196 8 3.14182 7.73405 3.50846 7.31325L8.04395 9.58102C8.01517 9.71612 8 9.8563 8 10C8 11.1046 8.89542 12 10 12C11.1046 12 12 11.1046 12 10C12 8.89543 11.1046 8 10 8C9.39803 8 8.85817 8.26595 8.49152 8.68676L3.95604 6.41901C3.98482 6.28388 3.99999 6.1437 3.99999 5.99999C3.99999 5.85629 3.98484 5.71612 3.95604 5.581L8.49153 3.31324C8.85818 3.73405 9.39803 3.99999 9.99999 3.99999ZM11 9.99999C11 10.5523 10.5523 11 9.99999 11C9.44771 11 8.99999 10.5523 8.99999 9.99999C8.99999 9.44771 9.44769 8.99999 9.99999 8.99999C10.5523 8.99999 11 9.44769 11 9.99999ZM2.99999 5.99994C2.99999 6.55222 2.55228 6.99993 2 6.99993C1.44772 6.99993 1.00001 6.55221 1.00001 5.99994C1.00001 5.44767 1.44771 4.99995 2 4.99995C2.55227 4.99995 2.99999 5.44766 2.99999 5.99994ZM11 1.99994C11 2.55222 10.5523 2.99993 9.99999 2.99993C9.44769 2.99993 8.99999 2.55221 8.99999 1.99994C8.99999 1.44766 9.44771 0.999948 9.99999 0.999948C10.5523 0.999948 11 1.44766 11 1.99994Z" />
</svg>

<!-- Generated by IcoMoon.io -->
<svg version="1.1" xmlns="http://www.w3.org/2000/svg" width="12" height="12" viewBox="0 0 12 12">
<title>share</title>
<path d="M10 4c1.105 0 2-0.895 2-2s-0.895-2-2-2c-1.105 0-2 0.895-2 2 0 0.144 0.015 0.284 0.044 0.419l-4.535 2.268c-0.367-0.421-0.907-0.687-1.508-0.687-1.105 0-2 0.895-2 2s0.895 2 2 2c0.602 0 1.142-0.266 1.508-0.687l4.535 2.268c-0.029 0.135-0.044 0.275-0.044 0.419 0 1.105 0.895 2 2 2s2-0.895 2-2c0-1.105-0.895-2-2-2-0.602 0-1.142 0.266-1.508 0.687l-4.535-2.268c0.029-0.135 0.044-0.275 0.044-0.419s-0.015-0.284-0.044-0.419l4.535-2.268c0.367 0.421 0.907 0.687 1.508 0.687zM11 10c0 0.552-0.448 1-1 1s-1-0.448-1-1c0-0.552 0.448-1 1-1s1 0.448 1 1zM3 6c0 0.552-0.448 1-1 1s-1-0.448-1-1c0-0.552 0.448-1 1-1s1 0.448 1 1zM11 2c0 0.552-0.448 1-1 1s-1-0.448-1-1c0-0.552 0.448-1 1-1s1 0.448 1 1z"></path>
</svg>
